src/assets/top/WinterHat4.svg

<svg width='280px' height='280px' viewBox='0 0 280 280' version='1.1' xmlns='http://www.w3.org/2000/svg'>
      <g id='Top'>
        <defs>
          <rect id='path5' x='0' y='0' width='264' height='280' />
          <path
            d='M129.659138,38.3566287 C132.459581,45.3577056 134,52.9989608 134,61 L134,69 L2,69 L2,61 C2,52.9748603 3.54971254,45.3116754 6.36620203,38.2933809 C-0.0371821146,24.8304767 -1.28053094,13.7727805 2.63615554,5.12029235 C10.141056,2.84355825 18.8342301,4.64979084 28.7156778,10.5389901 C38.4862647,3.88774159 50.289117,-4.77047603e-15 63,-7.10542736e-15 L73,-7.10542736e-15 C85.7221104,-9.44244112e-15 97.5345852,3.89461262 107.310208,10.5566215 C117.203883,4.65339747 125.906912,2.84128775 133.419297,5.12029235 C137.342115,13.7863263 136.088729,24.8651051 129.659138,38.3566287 Z'
            id='path1'
          />
          <path
            d='M28.7156857,10.5389848 C18.758718,17.3171083 10.9122881,26.9651756 6.36620203,38.2933809 C-0.0371821146,24.8304767 -1.28053094,13.7727805 2.63615554,5.12029235 C10.1410556,2.84355836 18.8342292,4.64979066 28.7156763,10.5389892 Z M129.659138,38.3566287 C125.120833,27.0109143 117.273404,17.34646 107.310208,10.5566215 C117.203883,4.65339747 125.906912,2.84128775 133.419297,5.12029235 C137.342115,13.7863263 136.088729,24.8651051 129.659138,38.3566287 Z'
            id='path2'
          />
          <path
            d='M21.8615933,15.9591438 C17.3889306,20.0465694 13.5271638,24.7913314 10.4291788,30.040544 C7.50356643,21.9322189 7.00287124,16.3214118 8.92709323,13.2081228 C11.5782173,12.0615989 15.8897174,12.9786059 21.8615933,15.9591438 Z M125.352616,29.6737564 C122.278044,24.5465519 118.471613,19.9084198 114.077736,15.903773 C119.880509,13.0520429 124.083178,12.1889392 126.68574,13.3144617 C128.572308,16.3668294 128.127934,21.8199276 125.352616,29.6737564 Z'
            id='path3'
          />
          <filter
            x='-0.7%'
            y='-1.7%'
            width='101.4%'
            height='106.8%'
            filterUnits='objectBoundingBox'
            id='filter1'
          >
            <feOffset
              dx='0'
              dy='2'
              in='SourceAlpha'
              result='shadowOffsetOuter1'
            />
            <feColorMatrix
              values='0 0 0 0 0   0 0 0 0 0   0 0 0 0 0  0 0 0 0.1 0'
              type='matrix'
              in='shadowOffsetOuter1'
            />
          </filter>
          <path
            d='M67.2846026,61.4514246 C83.229708,49.8171415 105.159178,44 133.073012,44 C160.985408,44 182.871592,49.8165424 198.731564,61.4496271 L198.731562,61.4496305 C200.786183,62.956669 202.000006,65.3523289 202.000006,67.900394 L202.000004,98.3697692 C202.000004,100.578907 200.209144,102.369768 198.000006,102.369768 C197.244444,102.369768 196.504332,102.155773 195.865355,101.752558 C179.223261,91.2508526 158.536251,86 133.804323,86 C108.883259,86 87.640395,91.3314713 70.0757313,101.994414 L70.0757317,101.994414 C68.1873241,103.140806 65.7271332,102.539283 64.5807417,100.650875 C64.2008775,100.02514 64.0000054,99.3071624 64.0000054,98.5751499 L64,67.914014 C64,65.358892 65.2205159,62.9574773 67.2846026,61.4514246 Z'
            id='path4'
          />
        </defs>
        <mask id='mask1' fill='white'>
          <use href='#path5' />
        </mask>
        <g id='Mask' />
        <g
          id='Top/Accessories/Winter-Hat-4'
          transform='translate(-1.000000, 0.000000)'
        >
          <g
            id='hat'
            strokeWidth='1'
            fillRule='evenodd'
            transform='translate(65.000000, 4.000000)'
          >
            <mask id='mask2' fill='white'>
              <use href='#path1' />
            </mask>
            <use class='CustomColor' fill='#D8D8D8' href='#path1' />
            <mask id='mask3' fill='white'>
              <use href='#path2' />
            </mask>
            <use
              id='shadow'
              opacity='0.24'
              fill='#000000'
              href='#path2'
            />
            <mask id='mask4' fill='white'>
              <use href='#path3' />
            </mask>
            <use
              id='light'
              opacity='0.300000012'
              fill='#FFFFFF'
              href='#path3'
            />
          </g>
          <g id='hat-front'>
            <use
              fill='black'
              opacity='1'
              filter='url("#path4")'
              href='#path4'
            />
            <use fill='#F4F4F4' fillRule='evenodd' href='#path4' />
          </g>
        </g>
      </g>
</svg>

<svg width="280" height="280" xmlns="http://www.w3.org/2000/svg"><defs><path id="a" d="M0 0h264v280H0z"/><path d="M129.66 38.357A60.834 60.834 0 01134 61v8H2v-8c0-8.025 1.55-15.688 4.366-22.707C-.037 24.83-1.28 13.773 2.636 5.12c7.505-2.276 16.198-.47 26.08 5.419C38.486 3.888 50.289 0 63 0h10c12.722 0 24.535 3.895 34.31 10.557 9.894-5.904 18.597-7.716 26.11-5.437 3.922 8.666 2.669 19.745-3.76 33.237z" id="b"/><path d="M28.716 10.539c-9.957 6.778-17.804 16.426-22.35 27.754C-.037 24.83-1.28 13.773 2.636 5.12c7.505-2.276 16.198-.47 26.08 5.419zm100.943 27.818c-4.538-11.346-12.386-21.01-22.349-27.8 9.894-5.904 18.597-7.716 26.11-5.437 3.922 8.666 2.669 19.745-3.76 33.237z" id="c"/><path d="M21.862 15.96a61.277 61.277 0 00-11.433 14.08c-2.925-8.108-3.426-13.719-1.502-16.832 2.651-1.146 6.963-.23 12.935 2.751zm103.49 13.714a61.284 61.284 0 00-11.274-13.77c5.803-2.852 10.005-3.715 12.608-2.59 1.886 3.053 1.442 8.506-1.333 16.36z" id="d"/><path d="M67.285 61.451C83.23 49.817 105.159 44 133.073 44c27.912 0 49.799 5.817 65.659 17.45A8 8 0 01202 67.9v30.47a4 4 0 01-6.135 3.383C179.223 91.25 158.536 86 133.805 86c-24.922 0-46.165 5.331-63.73 15.994A4 4 0 0164 98.575V67.914a8 8 0 013.285-6.463z" id="e"/></defs><g transform="translate(64 4)"><use class="CustomColor" fill="#D8D8D8" href="#b"/><use opacity=".24" href="#c"/><use opacity=".3" fill="#FFF" href="#d"/></g><g transform="translate(-1)"><use filter="url(&quot;#e&quot;)" href="#e"/><use fill="#F4F4F4" href="#e"/></g></svg>
